images/5459512.svg

<?xml version="1.0" encoding="UTF-8"?>
<svg xmlns="http://www.w3.org/2000/svg" xmlns:xlink="http://www.w3.org/1999/xlink" width="300pt" height="300pt" viewBox="0 0 300 300" version="1.1">
<defs>
<g>
<symbol overflow="visible" id="glyph0-0">
<path style="stroke:none;" d="M 0.453125 1.59375 L 0.453125 -6.34375 L 4.953125 -6.34375 L 4.953125 1.59375 Z M 0.953125 1.09375 L 4.453125 1.09375 L 4.453125 -5.84375 L 0.953125 -5.84375 Z M 0.953125 1.09375 "/>
</symbol>
<symbol overflow="visible" id="glyph0-1">
<path style="stroke:none;" d="M 3.546875 -5.953125 C 2.898438 -5.953125 2.382812 -5.710938 2 -5.234375 C 1.625 -4.753906 1.4375 -4.101562 1.4375 -3.28125 C 1.4375 -2.445312 1.625 -1.789062 2 -1.3125 C 2.382812 -0.832031 2.898438 -0.59375 3.546875 -0.59375 C 4.191406 -0.59375 4.703125 -0.832031 5.078125 -1.3125 C 5.453125 -1.789062 5.640625 -2.445312 5.640625 -3.28125 C 5.640625 -4.101562 5.453125 -4.753906 5.078125 -5.234375 C 4.703125 -5.710938 4.191406 -5.953125 3.546875 -5.953125 Z M 3.546875 -6.6875 C 4.460938 -6.6875 5.195312 -6.375 5.75 -5.75 C 6.300781 -5.132812 6.578125 -4.3125 6.578125 -3.28125 C 6.578125 -2.238281 6.300781 -1.410156 5.75 -0.796875 C 5.195312 -0.179688 4.460938 0.125 3.546875 0.125 C 2.617188 0.125 1.878906 -0.179688 1.328125 -0.796875 C 0.773438 -1.410156 0.5 -2.238281 0.5 -3.28125 C 0.5 -4.3125 0.773438 -5.132812 1.328125 -5.75 C 1.878906 -6.375 2.617188 -6.6875 3.546875 -6.6875 Z M 3.546875 -6.6875 "/>
</symbol>
<symbol overflow="visible" id="glyph0-2">
<path style="stroke:none;" d="M 0.890625 -6.5625 L 2.078125 -6.5625 L 4.984375 -1.078125 L 4.984375 -6.5625 L 5.84375 -6.5625 L 5.84375 0 L 4.65625 0 L 1.75 -5.484375 L 1.75 0 L 0.890625 0 Z M 0.890625 -6.5625 "/>
</symbol>
<symbol overflow="visible" id="glyph0-3">
<path style="stroke:none;" d="M 0.890625 -6.5625 L 4.65625 -6.5625 L 4.65625 -5.8125 L 1.765625 -5.8125 L 1.765625 -3.875 L 4.375 -3.875 L 4.375 -3.140625 L 1.765625 -3.140625 L 1.765625 0 L 0.890625 0 Z M 0.890625 -6.5625 "/>
</symbol>
</g>
</defs>
<g id="surface54341">
<rect x="0" y="0" width="300" height="300" style="fill:rgb(100%,100%,100%);fill-opacity:1;stroke:none;"/>
<path style="fill:none;stroke-width:1.2;stroke-linecap:butt;stroke-linejoin:miter;stroke:rgb(0%,0%,0%);stroke-opacity:1;stroke-miterlimit:10;" d="M 95.902344 179.296875 L 83.707031 162.035156 "/>
<path style="fill:none;stroke-width:1.2;stroke-linecap:butt;stroke-linejoin:miter;stroke:rgb(0%,0%,0%);stroke-opacity:1;stroke-miterlimit:10;" d="M 83.707031 162.035156 L 102.148438 151.707031 "/>
<path style="fill:none;stroke-width:1.2;stroke-linecap:butt;stroke-linejoin:miter;stroke:rgb(0%,0%,0%);stroke-opacity:1;stroke-miterlimit:10;" d="M 83.707031 162.035156 L 67.816406 175.96875 "/>
<path style="fill:none;stroke-width:1.2;stroke-linecap:butt;stroke-linejoin:miter;stroke:rgb(0%,0%,0%);stroke-opacity:1;stroke-miterlimit:10;" d="M 68.1875 147.6875 L 83.707031 162.035156 "/>
<path style="fill:none;stroke-width:1.2;stroke-linecap:butt;stroke-linejoin:miter;stroke:rgb(0%,0%,0%);stroke-opacity:1;stroke-miterlimit:10;" d="M 102.148438 151.707031 L 122.164062 158.503906 "/>
<path style="fill:none;stroke-width:1.2;stroke-linecap:butt;stroke-linejoin:miter;stroke:rgb(0%,0%,0%);stroke-opacity:1;stroke-miterlimit:10;" d="M 105.75 147.679688 L 121.761719 153.113281 "/>
<path style="fill:none;stroke-width:1.2;stroke-linecap:butt;stroke-linejoin:miter;stroke:rgb(0%,0%,0%);stroke-opacity:1;stroke-miterlimit:10;" d="M 98.027344 130.976562 L 102.148438 151.707031 "/>
<path style="fill:none;stroke-width:1.2;stroke-linecap:butt;stroke-linejoin:miter;stroke:rgb(0%,0%,0%);stroke-opacity:1;stroke-miterlimit:10;" d="M 122.164062 158.503906 L 138.054688 144.570312 "/>
<path style="fill:none;stroke-width:1.2;stroke-linecap:butt;stroke-linejoin:miter;stroke:rgb(0%,0%,0%);stroke-opacity:1;stroke-miterlimit:10;" d="M 138.054688 144.570312 L 159.042969 147.054688 "/>
<path style="fill:none;stroke-width:1.2;stroke-linecap:butt;stroke-linejoin:miter;stroke:rgb(0%,0%,0%);stroke-opacity:1;stroke-miterlimit:10;" d="M 138.054688 144.570312 L 144.320312 164.753906 "/>
<path style="fill:none;stroke-width:1.2;stroke-linecap:butt;stroke-linejoin:miter;stroke:rgb(0%,0%,100%);stroke-opacity:1;stroke-miterlimit:10;" d="M 133.933594 123.839844 L 135.992188 134.203125 "/>
<path style="fill:none;stroke-width:1.2;stroke-linecap:butt;stroke-linejoin:miter;stroke:rgb(0%,0%,0%);stroke-opacity:1;stroke-miterlimit:10;" d="M 135.992188 134.203125 L 138.054688 144.570312 "/>
<path style="fill:none;stroke-width:1.2;stroke-linecap:butt;stroke-linejoin:miter;stroke:rgb(0%,0%,0%);stroke-opacity:1;stroke-miterlimit:10;" d="M 156.875 148.269531 L 162.039062 157.488281 "/>
<path style="fill:none;stroke-width:1.2;stroke-linecap:butt;stroke-linejoin:miter;stroke:rgb(100%,0%,0%);stroke-opacity:1;stroke-miterlimit:10;" d="M 162.039062 157.488281 L 167.199219 166.710938 "/>
<path style="fill:none;stroke-width:1.2;stroke-linecap:butt;stroke-linejoin:miter;stroke:rgb(0%,0%,0%);stroke-opacity:1;stroke-miterlimit:10;" d="M 161.214844 145.839844 L 166.375 155.058594 "/>
<path style="fill:none;stroke-width:1.2;stroke-linecap:butt;stroke-linejoin:miter;stroke:rgb(100%,0%,0%);stroke-opacity:1;stroke-miterlimit:10;" d="M 166.375 155.058594 L 171.539062 164.28125 "/>
<path style="fill:none;stroke-width:1.2;stroke-linecap:butt;stroke-linejoin:miter;stroke:rgb(0%,0%,0%);stroke-opacity:1;stroke-miterlimit:10;" d="M 159.042969 147.054688 L 163.46875 137.457031 "/>
<path style="fill:none;stroke-width:1.2;stroke-linecap:butt;stroke-linejoin:miter;stroke:rgb(0%,0%,100%);stroke-opacity:1;stroke-miterlimit:10;" d="M 163.46875 137.457031 L 167.894531 127.859375 "/>
<path style=" stroke:none;fill-rule:nonzero;fill:rgb(100%,100%,100%);fill-opacity:1;" d="M 165.371094 159.996094 L 173.371094 159.996094 L 173.371094 170.996094 L 165.371094 170.996094 Z M 165.371094 159.996094 "/>
<g style="fill:rgb(100%,0%,0%);fill-opacity:1;">
  <use xlink:href="#glyph0-1" x="165.371094" y="168.65918"/>
</g>
<path style="fill:none;stroke-width:1.2;stroke-linecap:butt;stroke-linejoin:miter;stroke:rgb(0%,0%,100%);stroke-opacity:1;stroke-miterlimit:10;" d="M 167.894531 127.859375 L 160.132812 120.6875 "/>
<path style="fill:none;stroke-width:1.2;stroke-linecap:butt;stroke-linejoin:miter;stroke:rgb(0%,0%,0%);stroke-opacity:1;stroke-miterlimit:10;" d="M 160.132812 120.6875 L 152.375 113.511719 "/>
<path style="fill:none;stroke-width:1.2;stroke-linecap:butt;stroke-linejoin:miter;stroke:rgb(0%,0%,100%);stroke-opacity:1;stroke-miterlimit:10;" d="M 167.894531 127.859375 L 178.257812 125.800781 "/>
<path style="fill:none;stroke-width:1.2;stroke-linecap:butt;stroke-linejoin:miter;stroke:rgb(0%,0%,0%);stroke-opacity:1;stroke-miterlimit:10;" d="M 178.257812 125.800781 L 188.625 123.738281 "/>
<path style=" stroke:none;fill-rule:nonzero;fill:rgb(100%,100%,100%);fill-opacity:1;" d="M 164.894531 122.359375 L 171.894531 122.359375 L 171.894531 133.359375 L 164.894531 133.359375 Z M 164.894531 122.359375 "/>
<g style="fill:rgb(0%,0%,100%);fill-opacity:1;">
  <use xlink:href="#glyph0-2" x="164.894531" y="131.022461"/>
</g>
<path style="fill:none;stroke-width:1.2;stroke-linecap:butt;stroke-linejoin:miter;stroke:rgb(0%,0%,0%);stroke-opacity:1;stroke-miterlimit:10;" d="M 154.84375 113.804688 L 156.085938 103.308594 "/>
<path style="fill:none;stroke-width:1.2;stroke-linecap:butt;stroke-linejoin:miter;stroke:rgb(100%,0%,0%);stroke-opacity:1;stroke-miterlimit:10;" d="M 156.085938 103.308594 L 157.328125 92.816406 "/>
<path style="fill:none;stroke-width:1.2;stroke-linecap:butt;stroke-linejoin:miter;stroke:rgb(0%,0%,0%);stroke-opacity:1;stroke-miterlimit:10;" d="M 149.90625 113.21875 L 151.148438 102.726562 "/>
<path style="fill:none;stroke-width:1.2;stroke-linecap:butt;stroke-linejoin:miter;stroke:rgb(100%,0%,0%);stroke-opacity:1;stroke-miterlimit:10;" d="M 151.148438 102.726562 L 152.390625 92.230469 "/>
<path style="fill:none;stroke-width:1.2;stroke-linecap:butt;stroke-linejoin:miter;stroke:rgb(0%,0%,0%);stroke-opacity:1;stroke-miterlimit:10;" d="M 152.375 113.511719 L 143.152344 118.675781 "/>
<path style="fill:none;stroke-width:1.2;stroke-linecap:butt;stroke-linejoin:miter;stroke:rgb(0%,0%,100%);stroke-opacity:1;stroke-miterlimit:10;" d="M 143.152344 118.675781 L 133.933594 123.839844 "/>
<path style=" stroke:none;fill-rule:nonzero;fill:rgb(100%,100%,100%);fill-opacity:1;" d="M 150.859375 87.023438 L 158.859375 87.023438 L 158.859375 98.023438 L 150.859375 98.023438 Z M 150.859375 87.023438 "/>
<g style="fill:rgb(100%,0%,0%);fill-opacity:1;">
  <use xlink:href="#glyph0-1" x="150.859375" y="95.686523"/>
</g>
<path style="fill:none;stroke-width:1.2;stroke-linecap:butt;stroke-linejoin:miter;stroke:rgb(0%,0%,100%);stroke-opacity:1;stroke-miterlimit:10;" d="M 133.933594 123.839844 L 123.925781 120.441406 "/>
<path style="fill:none;stroke-width:1.2;stroke-linecap:butt;stroke-linejoin:miter;stroke:rgb(0%,0%,0%);stroke-opacity:1;stroke-miterlimit:10;" d="M 123.925781 120.441406 L 113.917969 117.042969 "/>
<path style=" stroke:none;fill-rule:nonzero;fill:rgb(100%,100%,100%);fill-opacity:1;" d="M 130.933594 118.339844 L 137.933594 118.339844 L 137.933594 129.339844 L 130.933594 129.339844 Z M 130.933594 118.339844 "/>
<g style="fill:rgb(0%,0%,100%);fill-opacity:1;">
  <use xlink:href="#glyph0-2" x="130.933594" y="127.00293"/>
</g>
<path style="fill:none;stroke-width:1.2;stroke-linecap:butt;stroke-linejoin:miter;stroke:rgb(0%,0%,0%);stroke-opacity:1;stroke-miterlimit:10;" d="M 113.917969 117.042969 L 98.027344 130.976562 "/>
<path style="fill:none;stroke-width:1.2;stroke-linecap:butt;stroke-linejoin:miter;stroke:rgb(0%,0%,0%);stroke-opacity:1;stroke-miterlimit:10;" d="M 98.027344 130.976562 L 77.035156 128.492188 "/>
<path style="fill:none;stroke-width:1.2;stroke-linecap:butt;stroke-linejoin:miter;stroke:rgb(0%,0%,0%);stroke-opacity:1;stroke-miterlimit:10;" d="M 95.34375 135.667969 L 78.550781 133.679688 "/>
<path style="fill:none;stroke-width:1.2;stroke-linecap:butt;stroke-linejoin:miter;stroke:rgb(0%,0%,0%);stroke-opacity:1;stroke-miterlimit:10;" d="M 77.035156 128.492188 L 68.1875 147.6875 "/>
<path style="fill:none;stroke-width:1.2;stroke-linecap:butt;stroke-linejoin:miter;stroke:rgb(0%,0%,0%);stroke-opacity:1;stroke-miterlimit:10;" d="M 77.035156 128.492188 L 66.710938 110.050781 "/>
<path style="fill:none;stroke-width:1.2;stroke-linecap:butt;stroke-linejoin:miter;stroke:rgb(0%,0%,0%);stroke-opacity:1;stroke-miterlimit:10;" d="M 67.703125 145.246094 L 57.335938 147.308594 "/>
<path style="fill:none;stroke-width:1.2;stroke-linecap:butt;stroke-linejoin:miter;stroke:rgb(100%,0%,0%);stroke-opacity:1;stroke-miterlimit:10;" d="M 57.335938 147.308594 L 46.972656 149.371094 "/>
<path style="fill:none;stroke-width:1.2;stroke-linecap:butt;stroke-linejoin:miter;stroke:rgb(0%,0%,0%);stroke-opacity:1;stroke-miterlimit:10;" d="M 68.671875 150.125 L 58.304688 152.1875 "/>
<path style="fill:none;stroke-width:1.2;stroke-linecap:butt;stroke-linejoin:miter;stroke:rgb(100%,0%,0%);stroke-opacity:1;stroke-miterlimit:10;" d="M 58.304688 152.1875 L 47.941406 154.246094 "/>
<path style=" stroke:none;fill-rule:nonzero;fill:rgb(100%,100%,100%);fill-opacity:1;" d="M 39.457031 146.308594 L 47.457031 146.308594 L 47.457031 157.308594 L 39.457031 157.308594 Z M 39.457031 146.308594 "/>
<g style="fill:rgb(100%,0%,0%);fill-opacity:1;">
  <use xlink:href="#glyph0-1" x="39.457031" y="154.97168"/>
</g>
<path style="fill:none;stroke-width:1.2;stroke-linecap:butt;stroke-linejoin:miter;stroke:rgb(0%,0%,0%);stroke-opacity:1;stroke-miterlimit:10;" d="M 66.710938 110.050781 L 77.519531 91.886719 "/>
<path style="fill:none;stroke-width:1.2;stroke-linecap:butt;stroke-linejoin:miter;stroke:rgb(0%,0%,0%);stroke-opacity:1;stroke-miterlimit:10;" d="M 63.515625 105.691406 L 72.164062 91.160156 "/>
<path style="fill:none;stroke-width:1.2;stroke-linecap:butt;stroke-linejoin:miter;stroke:rgb(0%,0%,0%);stroke-opacity:1;stroke-miterlimit:10;" d="M 45.578125 109.773438 L 66.710938 110.050781 "/>
<path style="fill:none;stroke-width:1.2;stroke-linecap:butt;stroke-linejoin:miter;stroke:rgb(0%,0%,0%);stroke-opacity:1;stroke-miterlimit:10;" d="M 77.519531 91.886719 L 67.191406 73.445312 "/>
<path style="fill:none;stroke-width:1.2;stroke-linecap:butt;stroke-linejoin:miter;stroke:rgb(0%,0%,0%);stroke-opacity:1;stroke-miterlimit:10;" d="M 67.191406 73.445312 L 46.058594 73.167969 "/>
<path style="fill:none;stroke-width:1.2;stroke-linecap:butt;stroke-linejoin:miter;stroke:rgb(0%,0%,0%);stroke-opacity:1;stroke-miterlimit:10;" d="M 65.011719 78.390625 L 48.105469 78.167969 "/>
<path style="fill:none;stroke-width:1.2;stroke-linecap:butt;stroke-linejoin:miter;stroke:rgb(0%,0%,0%);stroke-opacity:1;stroke-miterlimit:10;" d="M 46.058594 73.167969 L 35.25 91.332031 "/>
<path style="fill:none;stroke-width:1.2;stroke-linecap:butt;stroke-linejoin:miter;stroke:rgb(0%,0%,0%);stroke-opacity:1;stroke-miterlimit:10;" d="M 35.25 91.332031 L 45.578125 109.773438 "/>
<path style="fill:none;stroke-width:1.2;stroke-linecap:butt;stroke-linejoin:miter;stroke:rgb(0%,0%,0%);stroke-opacity:1;stroke-miterlimit:10;" d="M 40.621094 90.746094 L 48.882812 105.5 "/>
<path style="fill:none;stroke-width:1.2;stroke-linecap:butt;stroke-linejoin:miter;stroke:rgb(0%,0%,0%);stroke-opacity:1;stroke-miterlimit:10;" d="M 188.625 123.738281 L 202.558594 139.628906 "/>
<path style="fill:none;stroke-width:1.2;stroke-linecap:butt;stroke-linejoin:miter;stroke:rgb(0%,0%,0%);stroke-opacity:1;stroke-miterlimit:10;" d="M 202.558594 139.628906 L 223.289062 135.507812 "/>
<path style="fill:none;stroke-width:1.2;stroke-linecap:butt;stroke-linejoin:miter;stroke:rgb(0%,0%,0%);stroke-opacity:1;stroke-miterlimit:10;" d="M 223.289062 135.507812 L 237.222656 151.398438 "/>
<path style="fill:none;stroke-width:1.2;stroke-linecap:butt;stroke-linejoin:miter;stroke:rgb(0%,0%,0%);stroke-opacity:1;stroke-miterlimit:10;" d="M 228.421875 133.820312 L 239.570312 146.53125 "/>
<path style="fill:none;stroke-width:1.2;stroke-linecap:butt;stroke-linejoin:miter;stroke:rgb(0%,0%,0%);stroke-opacity:1;stroke-miterlimit:10;" d="M 230.085938 115.496094 L 223.289062 135.507812 "/>
<path style="fill:none;stroke-width:1.2;stroke-linecap:butt;stroke-linejoin:miter;stroke:rgb(0%,0%,0%);stroke-opacity:1;stroke-miterlimit:10;" d="M 237.222656 151.398438 L 257.953125 147.277344 "/>
<path style="fill:none;stroke-width:1.2;stroke-linecap:butt;stroke-linejoin:miter;stroke:rgb(0%,0%,0%);stroke-opacity:1;stroke-miterlimit:10;" d="M 257.953125 147.277344 L 264.75 127.265625 "/>
<path style="fill:none;stroke-width:1.2;stroke-linecap:butt;stroke-linejoin:miter;stroke:rgb(0%,0%,0%);stroke-opacity:1;stroke-miterlimit:10;" d="M 253.925781 143.679688 L 259.359375 127.667969 "/>
<path style="fill:none;stroke-width:1.2;stroke-linecap:butt;stroke-linejoin:miter;stroke:rgb(0%,0%,0%);stroke-opacity:1;stroke-miterlimit:10;" d="M 264.75 127.265625 L 250.816406 111.371094 "/>
<path style="fill:none;stroke-width:1.2;stroke-linecap:butt;stroke-linejoin:miter;stroke:rgb(0%,0%,0%);stroke-opacity:1;stroke-miterlimit:10;" d="M 250.816406 111.371094 L 230.085938 115.496094 "/>
<path style="fill:none;stroke-width:1.2;stroke-linecap:butt;stroke-linejoin:miter;stroke:rgb(0%,0%,0%);stroke-opacity:1;stroke-miterlimit:10;" d="M 249.710938 116.660156 L 233.128906 119.960938 "/>
<path style="fill:none;stroke-width:1.2;stroke-linecap:butt;stroke-linejoin:miter;stroke:rgb(0%,0%,0%);stroke-opacity:1;stroke-miterlimit:10;" d="M 144.320312 164.753906 L 129.972656 180.273438 "/>
<path style="fill:none;stroke-width:1.2;stroke-linecap:butt;stroke-linejoin:miter;stroke:rgb(0%,0%,0%);stroke-opacity:1;stroke-miterlimit:10;" d="M 129.972656 180.273438 L 136.238281 200.460938 "/>
<path style="fill:none;stroke-width:1.2;stroke-linecap:butt;stroke-linejoin:miter;stroke:rgb(0%,0%,0%);stroke-opacity:1;stroke-miterlimit:10;" d="M 125.847656 183.765625 L 130.863281 199.914062 "/>
<path style="fill:none;stroke-width:1.2;stroke-linecap:butt;stroke-linejoin:miter;stroke:rgb(0%,0%,0%);stroke-opacity:1;stroke-miterlimit:10;" d="M 109.359375 175.609375 L 129.972656 180.273438 "/>
<path style="fill:none;stroke-width:1.2;stroke-linecap:butt;stroke-linejoin:miter;stroke:rgb(0%,0%,0%);stroke-opacity:1;stroke-miterlimit:10;" d="M 136.238281 200.460938 L 121.890625 215.980469 "/>
<path style="fill:none;stroke-width:1.2;stroke-linecap:butt;stroke-linejoin:miter;stroke:rgb(0%,0%,0%);stroke-opacity:1;stroke-miterlimit:10;" d="M 121.890625 215.980469 L 101.277344 211.3125 "/>
<path style="fill:none;stroke-width:1.2;stroke-linecap:butt;stroke-linejoin:miter;stroke:rgb(0%,0%,0%);stroke-opacity:1;stroke-miterlimit:10;" d="M 120.925781 210.664062 L 104.433594 206.929688 "/>
<path style="fill:none;stroke-width:1.2;stroke-linecap:butt;stroke-linejoin:miter;stroke:rgb(0%,0%,0%);stroke-opacity:1;stroke-miterlimit:10;" d="M 101.277344 211.3125 L 95.007812 191.128906 "/>
<path style="fill:none;stroke-width:1.2;stroke-linecap:butt;stroke-linejoin:miter;stroke:rgb(0%,0%,0%);stroke-opacity:1;stroke-miterlimit:10;" d="M 101.277344 211.3125 L 94.101562 219.074219 "/>
<path style="fill:none;stroke-width:1.2;stroke-linecap:butt;stroke-linejoin:miter;stroke:rgb(20%,80%,80%);stroke-opacity:1;stroke-miterlimit:10;" d="M 94.101562 219.074219 L 86.925781 226.832031 "/>
<path style="fill:none;stroke-width:1.2;stroke-linecap:butt;stroke-linejoin:miter;stroke:rgb(0%,0%,0%);stroke-opacity:1;stroke-miterlimit:10;" d="M 95.007812 191.128906 L 109.359375 175.609375 "/>
<path style="fill:none;stroke-width:1.2;stroke-linecap:butt;stroke-linejoin:miter;stroke:rgb(0%,0%,0%);stroke-opacity:1;stroke-miterlimit:10;" d="M 100.097656 192.953125 L 111.574219 180.535156 "/>
<path style=" stroke:none;fill-rule:nonzero;fill:rgb(100%,100%,100%);fill-opacity:1;" d="M 80.925781 221.332031 L 86.925781 221.332031 L 86.925781 232.332031 L 80.925781 232.332031 Z M 80.925781 221.332031 "/>
<g style="fill:rgb(20%,80%,80%);fill-opacity:1;">
  <use xlink:href="#glyph0-3" x="80.925781" y="229.995117"/>
</g>
</g>
</svg>

<svg xmlns="http://www.w3.org/2000/svg" xmlns:xlink="http://www.w3.org/1999/xlink" width="300pt" height="300pt" viewBox="0 0 300 300"><defs><symbol overflow="visible"><path d="M.453 1.594v-7.938h4.5v7.938zm.5-.5h3.5v-6.938h-3.5zm0 0"/></symbol><symbol overflow="visible" id="a"><path d="M3.547-5.953c-.65 0-1.164.242-1.547.72-.375.48-.563 1.13-.563 1.952 0 .835.188 1.49.563 1.967.383.48.898.72 1.547.72.644 0 1.156-.24 1.53-.72.376-.476.564-1.132.564-1.968 0-.822-.187-1.474-.562-1.954-.375-.477-.887-.72-1.53-.72zm0-.734c.914 0 1.648.312 2.203.937.55.617.828 1.438.828 2.47 0 1.042-.277 1.87-.828 2.483-.555.617-1.29.922-2.203.922-.93 0-1.668-.305-2.22-.922C.774-1.41.5-2.237.5-3.28c0-1.033.273-1.853.828-2.47.55-.625 1.29-.938 2.22-.938zm0 0"/></symbol><symbol overflow="visible" id="b"><path d="M.89-6.563H2.08l2.906 5.485v-5.484h.86V0H4.656L1.75-5.484V0H.89zm0 0"/></symbol><symbol overflow="visible" id="c"><path d="M.89-6.563h3.766v.75h-2.89v1.938h2.61v.734h-2.61V0H.89zm0 0"/></symbol></defs><g><path fill="#fff" d="M0 0h300v300H0z"/><path d="M95.902 179.297l-12.195-17.262M83.707 162.035l18.44-10.328M83.707 162.035l-15.89 13.934M68.188 147.688l15.52 14.347M102.148 151.707l20.016 6.797M105.75 147.68l16.012 5.433M98.027 130.977l4.12 20.73M122.164 158.504l15.89-13.934M138.055 144.57l20.988 2.485M138.055 144.57l6.265 20.184" stroke-width="1.2" stroke="#000" stroke-miterlimit="10" fill="none"/><path d="M133.934 123.84l2.058 10.363" stroke-width="1.2" stroke="#00f" stroke-miterlimit="10" fill="none"/><path d="M135.992 134.203l2.063 10.367M156.875 148.27l5.164 9.218" stroke-width="1.2" stroke="#000" stroke-miterlimit="10" fill="none"/><path d="M162.04 157.488l5.16 9.223" stroke-width="1.2" stroke="#f00" stroke-miterlimit="10" fill="none"/><path d="M161.215 145.84l5.16 9.22" stroke-width="1.2" stroke="#000" stroke-miterlimit="10" fill="none"/><path d="M166.375 155.06l5.164 9.22" stroke-width="1.2" stroke="#f00" stroke-miterlimit="10" fill="none"/><path d="M159.043 147.055l4.426-9.598" stroke-width="1.2" stroke="#000" stroke-miterlimit="10" fill="none"/><path d="M163.47 137.457l4.425-9.598" stroke-width="1.2" stroke="#00f" stroke-miterlimit="10" fill="none"/><path d="M165.37 159.996h8v11h-8zm0 0" fill="#fff"/><use xlink:href="#a" x="165.371" y="168.659" fill="#f00"/><path d="M167.895 127.86l-7.762-7.172" stroke-width="1.2" stroke="#00f" stroke-miterlimit="10" fill="none"/><path d="M160.133 120.688l-7.758-7.176" stroke-width="1.2" stroke="#000" stroke-miterlimit="10" fill="none"/><path d="M167.895 127.86l10.363-2.06" stroke-width="1.2" stroke="#00f" stroke-miterlimit="10" fill="none"/><path d="M178.258 125.8l10.367-2.062" stroke-width="1.2" stroke="#000" stroke-miterlimit="10" fill="none"/><path d="M164.895 122.36h7v11h-7zm0 0" fill="#fff"/><use xlink:href="#b" x="164.895" y="131.022" fill="#00f"/><path d="M154.844 113.805l1.242-10.496" stroke-width="1.2" stroke="#000" stroke-miterlimit="10" fill="none"/><path d="M156.086 103.31l1.242-10.494" stroke-width="1.2" stroke="#f00" stroke-miterlimit="10" fill="none"/><path d="M149.906 113.22l1.242-10.493" stroke-width="1.2" stroke="#000" stroke-miterlimit="10" fill="none"/><path d="M151.148 102.727l1.243-10.497" stroke-width="1.2" stroke="#f00" stroke-miterlimit="10" fill="none"/><path d="M152.375 113.512l-9.223 5.164" stroke-width="1.2" stroke="#000" stroke-miterlimit="10" fill="none"/><path d="M143.152 118.676l-9.218 5.164" stroke-width="1.2" stroke="#00f" stroke-miterlimit="10" fill="none"/><path d="M150.86 87.023h8v11h-8zm0 0" fill="#fff"/><use xlink:href="#a" x="150.859" y="95.687" fill="#f00"/><path d="M133.934 123.84l-10.008-3.4" stroke-width="1.2" stroke="#00f" stroke-miterlimit="10" fill="none"/><path d="M123.926 120.44l-10.008-3.397" stroke-width="1.2" stroke="#000" stroke-miterlimit="10" fill="none"/><path d="M130.934 118.34h7v11h-7zm0 0" fill="#fff"/><use xlink:href="#b" x="130.934" y="127.003" fill="#00f"/><path d="M113.918 117.043l-15.89 13.934M98.027 130.977l-20.992-2.485M95.344 135.668L78.55 133.68M77.035 128.492l-8.847 19.196M77.035 128.492l-10.324-18.44M67.703 145.246l-10.367 2.063" stroke-width="1.2" stroke="#000" stroke-miterlimit="10" fill="none"/><path d="M57.336 147.31l-10.363 2.06" stroke-width="1.2" stroke="#f00" stroke-miterlimit="10" fill="none"/><path d="M68.672 150.125l-10.367 2.063" stroke-width="1.2" stroke="#000" stroke-miterlimit="10" fill="none"/><path d="M58.305 152.188l-10.364 2.058" stroke-width="1.2" stroke="#f00" stroke-miterlimit="10" fill="none"/><path d="M39.457 146.31h8v11h-8zm0 0" fill="#fff"/><use xlink:href="#a" x="39.457" y="154.972" fill="#f00"/><path d="M66.71 110.05l10.81-18.163M63.516 105.69l8.648-14.53M45.578 109.773l21.133.278M77.52 91.887L67.19 73.445M67.19 73.445l-21.13-.277M65.012 78.39l-16.907-.222M46.06 73.168L35.25 91.332M35.25 91.332l10.328 18.44M40.62 90.746l8.263 14.754M188.625 123.738l13.934 15.89M202.56 139.63l20.73-4.122M223.29 135.508l13.933 15.89M228.422 133.82l11.148 12.71M230.086 115.496l-6.797 20.012M237.223 151.398l20.73-4.12M257.953 147.277l6.797-20.01M253.926 143.68l5.433-16.012M264.75 127.266l-13.934-15.895M250.816 111.37l-20.73 4.126M249.71 116.66l-16.58 3.3M144.32 164.754l-14.347 15.52M129.973 180.273l6.265 20.188M125.848 183.766l5.015 16.148M109.36 175.61l20.613 4.663M136.238 200.46l-14.347 15.52M121.89 215.98l-20.613-4.667M120.926 210.664l-16.492-3.734M101.277 211.313l-6.27-20.184M101.277 211.313l-7.175 7.76" stroke-width="1.2" stroke="#000" stroke-miterlimit="10" fill="none"/><path d="M94.102 219.074l-7.176 7.758" stroke-width="1.2" stroke="#3cc" stroke-miterlimit="10" fill="none"/><path d="M95.008 191.13l14.35-15.52M100.098 192.953l11.476-12.418" stroke-width="1.2" stroke="#000" stroke-miterlimit="10" fill="none"/><path d="M80.926 221.332h6v11h-6zm0 0" fill="#fff"/><use xlink:href="#c" x="80.926" y="229.995" fill="#3cc"/></g></svg>
